X: 31241
T: Paddy Fahey's
R: reel
M: 4/4
K: Adorian
AE ~E2 CEB,E|A,EED (3EFG AB|cded cdfd|eaag edcB|
AE ~E2 CEB,E|A,EED (3EFG AB|cded cBAG|E=F/E/ DG EA, ~A,2:|
|:eaag edcB|AE ~E2 cBcd|~e3d cBcd|egdg egdg|
eaag edcB|AE ~E2 cBcd|~e3d cBcd|1 eaag edcd:|2 eaag edcB||

